actions/symbolic/camera-switch-symbolic.svg

<?xml version="1.0" encoding="UTF-8" standalone="no"?>
<svg
   xmlns:dc="http://purl.org/dc/elements/1.1/"
   xmlns:cc="http://creativecommons.org/ns#"
   xmlns:rdf="http://www.w3.org/1999/02/22-rdf-syntax-ns#"
   xmlns:svg="http://www.w3.org/2000/svg"
   xmlns="http://www.w3.org/2000/svg"
   xmlns:sodipodi="http://sodipodi.sourceforge.net/DTD/sodipodi-0.dtd"
   xmlns:inkscape="http://www.inkscape.org/namespaces/inkscape"
   height="16"
   width="16"
   version="1.1"
   id="svg10"
   sodipodi:docname="camera-switch-symbolic.svg"
   inkscape:version="0.92.2pre0 (973e216, 2017-07-25)">
  <metadata
     id="metadata16">
    <rdf:RDF>
      <cc:Work
         rdf:about="">
        <dc:format>image/svg+xml</dc:format>
        <dc:type
           rdf:resource="http://purl.org/dc/dcmitype/StillImage" />
      </cc:Work>
    </rdf:RDF>
  </metadata>
  <defs
     id="defs14" />
  <sodipodi:namedview
     pagecolor="#ffffff"
     bordercolor="#666666"
     borderopacity="1"
     objecttolerance="10"
     gridtolerance="10"
     guidetolerance="10"
     inkscape:pageopacity="0"
     inkscape:pageshadow="2"
     inkscape:window-width="1920"
     inkscape:window-height="1001"
     id="namedview12"
     showgrid="false"
     inkscape:zoom="14.75"
     inkscape:cx="8"
     inkscape:cy="8"
     inkscape:window-x="0"
     inkscape:window-y="0"
     inkscape:window-maximized="1"
     inkscape:current-layer="svg10" />
  <g
     transform="translate(-32 -540)"
     id="g8"
     style="fill:#808080;fill-opacity:1">
    <path
       color="#000"
       d="M34 547.36c-1.287.729-1.998 1.667-2 2.64 0 1.256 1.039 2.255 2.484 2.93 1.214.566 2.784.92 4.516 1.023v-1c-1.602-.104-3.04-.438-4.092-.93C33.64 551.431 33 550.677 33 550a7 3 0 0 1 1-1.537zm12 .001v1.1a7 3 0 0 1 1 1.54c0 .676-.64 1.43-1.908 2.022-.589.275-1.304.499-2.092.667v1.03c.937-.183 1.789-.451 2.516-.79C46.96 552.255 48 551.256 48 550c-.003-.972-.714-1.91-2-2.639z"
       fill="#808080"
       fill-rule="evenodd"
       font-family="sans-serif"
       font-weight="400"
       overflow="visible"
       style="line-height:normal;text-indent:0;text-align:start;text-decoration-line:none;text-decoration-style:solid;text-decoration-color:#000;text-transform:none;isolation:auto;mix-blend-mode:normal;fill:#808080;fill-opacity:1"
       white-space="normal"
       id="path2" />
    <path
       d="M39 551v5l3.5-2.5z"
       fill="#808080"
       fill-rule="evenodd"
       id="path4"
       style="fill:#808080;fill-opacity:1" />
    <path
       color="#000"
       d="M37 540v1.025c-.75.018-1.41.07-1.938.36a1.88 1.88 0 0 0-.837.998c-.165.438-.225.96-.225 1.617v4c0 .658.06 1.179.225 1.617.164.439.461.79.837.998.753.416 1.674.37 2.932.385H42.006c1.258-.015 2.179.03 2.932-.385a1.88 1.88 0 0 0 .838-.998c.164-.438.224-.96.224-1.617v-4c0-.658-.06-1.179-.225-1.617a1.88 1.88 0 0 0-.837-.998c-.753-.416-1.674-.37-2.932-.385H39v-1zm1 2h4c1.259.015 2.087.06 2.453.262.184.1.29.212.387.472.097.26.16.674.16 1.266v4c0 .592-.063 1.006-.16 1.266-.098.26-.203.371-.387.472-.366.202-1.194.247-2.453.262h-4c-1.259-.015-2.09-.06-2.455-.262-.183-.1-.287-.212-.385-.472-.097-.26-.16-.674-.16-1.266v-4c0-.592.063-1.006.16-1.266.098-.26.202-.371.385-.472.366-.202 1.196-.247 2.455-.262zm2 1a3 3 0 1 0 0 6 3 3 0 0 0 0-6zm3.5 0a.5.5 0 1 0 0 1 .5.5 0 0 0 0-1zm-3.5 1a2 2 0 0 1 2 2 2 2 0 0 1-2 2 2 2 0 0 1-2-2 2 2 0 0 1 2-2zm0 1a1 1 0 0 0-1 1 1 1 0 0 0 1 1 1 1 0 0 0 1-1 1 1 0 0 0-1-1z"
       fill="#808080"
       font-family="sans-serif"
       font-weight="400"
       overflow="visible"
       style="line-height:normal;font-variant-ligatures:normal;font-variant-position:normal;font-variant-caps:normal;font-variant-numeric:normal;font-variant-alternates:normal;font-feature-settings:normal;text-indent:0;text-align:start;text-decoration-line:none;text-decoration-style:solid;text-decoration-color:#000;text-transform:none;text-orientation:mixed;shape-padding:0;isolation:auto;mix-blend-mode:normal;marker:none;fill:#808080;fill-opacity:1"
       white-space="normal"
       id="path6" />
  </g>
</svg>

<svg xmlns="http://www.w3.org/2000/svg" width="16" height="16" version="1.1">
 <g style="fill:#808080" transform="translate(-32,-540)">
  <path style="fill:#808080;fill-rule:evenodd" d="M 34,547.36 C 32.713,548.09 32.002,549.03 32,550 32,551.26 33.039,552.25 34.484,552.93 35.698,553.5 37.268,553.85 39,553.95 V 552.95 C 37.398,552.85 35.96,552.51 34.908,552.02 33.64,551.43 33,550.68 33,550 A 7,3 0 0 1 34,548.46 Z M 46,547.36 V 548.46 A 7,3 0 0 1 47,550 C 47,550.68 46.36,551.43 45.092,552.02 44.503,552.3 43.788,552.52 43,552.69 V 553.72 C 43.937,553.54 44.789,553.27 45.516,552.93 46.96,552.25 48,551.26 48,550 47.997,549.03 47.286,548.09 46,547.36 Z"/>
  <path style="fill:#808080;fill-rule:evenodd" d="M 39,551 V 556 L 42.5,553.5 Z"/>
  <path style="fill:#808080" d="M 37,540 V 541.02 C 36.25,541.04 35.59,541.1 35.062,541.38 A 1.88,1.88 0 0 0 34.225,542.38 C 34.06,542.82 34,543.34 34,544 V 548 C 34,548.66 34.06,549.18 34.225,549.62 34.389,550.06 34.686,550.41 35.062,550.62 35.815,551.03 36.736,550.99 37.994,551 H 42.006 C 43.264,550.99 44.185,551.03 44.938,550.62 A 1.88,1.88 0 0 0 45.776,549.62 C 45.94,549.18 46,548.66 46,548 V 544 C 46,543.34 45.94,542.82 45.775,542.38 A 1.88,1.88 0 0 0 44.938,541.38 C 44.185,540.97 43.264,541.01 42.006,541 H 39 V 540 Z M 38,542 H 42 C 43.259,542.01 44.087,542.06 44.453,542.26 44.637,542.36 44.743,542.47 44.84,542.73 44.937,542.99 45,543.41 45,544 V 548 C 45,548.59 44.937,549.01 44.84,549.27 44.742,549.53 44.637,549.64 44.453,549.74 44.087,549.94 43.259,549.98 42,550 H 38 C 36.741,549.98 35.91,549.94 35.545,549.74 35.362,549.64 35.258,549.53 35.16,549.27 35.063,549.01 35,548.59 35,548 V 544 C 35,543.41 35.063,542.99 35.16,542.73 35.258,542.47 35.362,542.36 35.545,542.26 35.911,542.06 36.741,542.01 38,542 Z M 40,543 A 3,3 0 1 0 40,549 3,3 0 0 0 40,543 Z M 43.5,543 A 0.5,0.5 0 1 0 43.5,544 0.5,0.5 0 0 0 43.5,543 Z M 40,544 A 2,2 0 0 1 42,546 2,2 0 0 1 40,548 2,2 0 0 1 38,546 2,2 0 0 1 40,544 Z M 40,545 A 1,1 0 0 0 39,546 1,1 0 0 0 40,547 1,1 0 0 0 41,546 1,1 0 0 0 40,545 Z"/>
 </g>
</svg>
